X:144
T: GRUESS DE GOTT
N: E0729A
O: Europa, Mitteleuropa, Deutschland, Wuerttemberg
R: Liebes - Lied, Leid, Klage
M: 4/4
L: 1/8
K: G
 | G2B2dcB2 | cBA2B2z2 |
B2A2A2A2 | B2dcB2z2 |
G2B2dcB2 | cBA2B2z2 |
G2B2dcB2 | cBA2G2z2

@@@ Tune index: 4457
